public/images/arrowIcon.svg

<svg width="17" height="19" viewBox="0 0 17 19" fill="none" xmlns="http://www.w3.org/2000/svg">
<path d="M1.24234 7.24826L8.18948 11.2592L1.24234 15.2701L1.24234 7.24826Z" fill="url(#paint0_linear_337_175)" stroke="url(#paint1_linear_337_175)" stroke-width="1.09405"/>
<path d="M1.06146 5.13124L1.06382 5.13266L1.35753 5.30837L1.35882 5.30914L8.20966 9.4591L8.21037 9.45953C8.21784 9.46404 8.22731 9.47344 8.23204 9.49301C8.23658 9.51178 8.23403 9.52993 8.22668 9.54438C8.20986 9.56947 8.19009 9.57495 8.18091 9.57534C8.17987 9.57521 8.17695 9.57477 8.17229 9.57347C8.16532 9.57152 8.15693 9.5683 8.14812 9.5637L1.92332 5.78838L1.09263 5.28456V6.2561V16.8931V17.8508L1.91753 17.3643L14.5531 9.9124L15.3519 9.44133L14.5532 8.97009L1.0157 0.982235L1.01574 0.982176L1.00819 0.977882C1.00049 0.973505 0.991957 0.964945 0.987615 0.948238C0.983163 0.931107 0.986083 0.916053 0.992648 0.904925L0.992666 0.904936L0.995086 0.900751C1.00544 0.882844 1.01829 0.875419 1.02876 0.87262C1.03894 0.869895 1.04722 0.871116 1.05608 0.87646L1.05606 0.876485L1.06087 0.879322L15.4886 9.38945L15.49 9.39025C15.5018 9.3972 15.5087 9.40513 15.5128 9.4121C15.5166 9.41881 15.5197 9.42775 15.5197 9.44056C15.5197 9.45334 15.5167 9.46236 15.5127 9.4693C15.5085 9.47651 15.5013 9.48488 15.4888 9.49225L15.4886 9.49232L1.06089 18.0018L1.06085 18.0017L1.05341 18.0063C1.05236 18.0069 1.04906 18.0086 1.04424 18.01C1.04037 18.0111 1.03808 18.0112 1.03808 18.0113C1.03155 18.0112 1.02638 18.0104 1.02204 18.0093C1.01912 18.0086 1.01568 18.0074 1.01163 18.0056C0.995418 17.9937 0.984525 17.9739 0.984525 17.9507V5.1855C0.984525 5.17942 0.985042 5.16977 0.994579 5.1512C1.00543 5.1352 1.01774 5.12867 1.02794 5.12607C1.03943 5.12313 1.05028 5.12447 1.06146 5.13124Z" fill="url(#paint2_linear_337_175)" stroke="url(#paint3_linear_337_175)" stroke-width="1.09405"/>
<defs>
<linearGradient id="paint0_linear_337_175" x1="0.695312" y1="11.2592" x2="9.28353" y2="11.2592" gradientUnits="userSpaceOnUse">
<stop stop-color="#084196"/>
<stop offset="1" stop-color="#00C0FF"/>
</linearGradient>
<linearGradient id="paint1_linear_337_175" x1="0.695312" y1="11.2592" x2="9.28353" y2="11.2592" gradientUnits="userSpaceOnUse">
<stop stop-color="#084398"/>
<stop offset="1" stop-color="#00BEFD"/>
</linearGradient>
<linearGradient id="paint2_linear_337_175" x1="0.4375" y1="9.44125" x2="16.0668" y2="9.44125" gradientUnits="userSpaceOnUse">
<stop stop-color="#084196"/>
<stop offset="1" stop-color="#00C0FF"/>
</linearGradient>
<linearGradient id="paint3_linear_337_175" x1="0.4375" y1="9.44125" x2="16.0668" y2="9.44125" gradientUnits="userSpaceOnUse">
<stop stop-color="#084398"/>
<stop offset="1" stop-color="#00BEFD"/>
</linearGradient>
</defs>
</svg>

<svg xmlns="http://www.w3.org/2000/svg" width="17" height="19" fill="none"><path fill="url(#a)" stroke="url(#b)" stroke-width="1.094" d="M1.242 7.248 8.19 11.26 1.242 15.27z"/><path fill="url(#c)" stroke="url(#d)" stroke-width="1.094" d="m1.061 5.131.003.002.294.175v.001L8.21 9.46q.013.006.022.034a.08.08 0 0 1-.005.051c-.017.025-.037.03-.046.031l-.009-.002-.024-.01-6.225-3.775-.83-.503V17.85l.825-.487 12.635-7.452.799-.47-.799-.472L1.016.982 1.008.978a.05.05 0 0 1-.02-.03.06.06 0 0 1 .005-.043L.995.9A.06.06 0 0 1 1.03.873a.03.03 0 0 1 .027.003l.005.003 14.428 8.51.001.001a.1.1 0 0 1 .023.022.1.1 0 0 1 .007.029.1.1 0 0 1-.007.028.1.1 0 0 1-.024.023L1.06 18.002l-.008.004-.009.004-.006.001a.1.1 0 0 1-.026-.005.07.07 0 0 1-.027-.055V5.186c0-.007 0-.016.01-.035a.06.06 0 0 1 .033-.025.04.04 0 0 1 .033.005Z"/><defs><linearGradient id="a" x1=".695" x2="9.284" y1="11.259" y2="11.259" gradientUnits="userSpaceOnUse"><stop stop-color="#084196"/><stop offset="1" stop-color="#00C0FF"/></linearGradient><linearGradient id="b" x1=".695" x2="9.284" y1="11.259" y2="11.259" gradientUnits="userSpaceOnUse"><stop stop-color="#084398"/><stop offset="1" stop-color="#00BEFD"/></linearGradient><linearGradient id="c" x1=".438" x2="16.067" y1="9.441" y2="9.441" gradientUnits="userSpaceOnUse"><stop stop-color="#084196"/><stop offset="1" stop-color="#00C0FF"/></linearGradient><linearGradient id="d" x1=".438" x2="16.067" y1="9.441" y2="9.441" gradientUnits="userSpaceOnUse"><stop stop-color="#084398"/><stop offset="1" stop-color="#00BEFD"/></linearGradient></defs></svg>
